X:1
T:Minuet. SenH.139, A
T:Minuet. SenH.139, A
T:in Hand C
C:in Hand C
L:1/8
Q:1/4=100
M:3/4
K:G
V:1 treble 
V:1
 G2 GGGG | B2 BBBB | d2 dddd | gdBd G2 | g2 gabc' | d'2 gabc' | d'2 d2 (gf) | g6 || b2 bbbb | b6 | %10
 bc'ba g2 | f2 ef d2 | a2 aaaa | a6 | ababab | f2 ef d2 | g2 gaba | gdBd G2 | gfgaba | g2 B2 G2 | %20
 g2 gabc' | d'2 gabc' | d'2 d2 (gf) | g6 |] %24

